packages/foundations/assets/icons/functional/images/transportation/airplane.svg

<svg xmlns="http://www.w3.org/2000/svg" width="32" height="32" fill="none"><path fill="#1A1C1F" fill-rule="evenodd" d="M10.747 4.349a6 6 0 0 0-.773.276c-.796.387-1.291 1.355-1.131 2.215.079.424 1.288 2.961 1.55 3.254.236.263.645.393.965.307.263-.071.579-.338.677-.572.16-.383.113-.546-.568-1.953-.352-.728-.64-1.356-.64-1.396 0-.076.48-.24.702-.24.093 0 .496.371 1.565 1.44 1.471 1.472 1.579 1.557 1.973 1.557.4 0 .797-.262.93-.614a1.17 1.17 0 0 0-.046-.825c-.056-.109-.784-.875-1.617-1.703-1.364-1.355-1.552-1.523-1.882-1.677-.507-.237-1.028-.258-1.705-.069m11.777 4.349c-.86.101-1.686.339-7.473 2.156-3.323 1.043-6.071 1.879-6.106 1.857a87 87 0 0 1-1.372-1.083c-1.414-1.129-1.709-1.304-2.355-1.4-.507-.075-.932.002-1.717.31-.548.216-.672.288-.938.549-.483.473-.685 1.156-.523 1.766.188.71 2.465 7.045 2.67 7.432.486.914 1.301 1.718 2.186 2.157.678.336 1.124.444 1.957.476.913.035 1.131-.008 3.067-.617l1.493-.47.028 2.164c.025 1.921.039 2.195.126 2.428.211.57.622 1.005 1.145 1.213.242.097.406.12.835.12.46 0 .605-.024 1.055-.175.458-.153.56-.211.84-.477.298-.285.45-.547 2.392-4.117 1.941-3.567 2.087-3.818 2.254-3.878.098-.036 1.295-.414 2.659-.841 1.489-.467 2.65-.86 2.906-.986 1.757-.864 2.713-2.907 2.235-4.773-.115-.45-.492-1.221-.786-1.609-.884-1.167-2.319-1.931-4.088-2.178-.628-.087-1.843-.099-2.49-.024m1.636 1.966c.337.027.805.088 1.04.137.441.091 1.254.379 1.252.443-.001.02-.379.156-.84.303-1.094.347-1.312.457-1.479.743-.342.582-.039 1.3.623 1.477.259.069.417.029 2.311-.589.44-.143.818-.25.84-.236.022.013.04.225.04.47 0 .953-.436 1.713-1.2 2.095-.118.059-.694.256-1.28.439-2.774.863-4.559 1.437-4.7 1.51a1.2 1.2 0 0 0-.27.206c-.064.068-1.079 1.893-2.257 4.055l-2.141 3.931-.284.083a4 4 0 0 1-.317.082c-.017 0-.032-1.242-.034-2.76-.002-2.903-.01-3.013-.246-3.277-.141-.159-.491-.307-.73-.308-.117-.001-1.161.297-2.427.693-1.221.383-2.388.719-2.592.748a2.94 2.94 0 0 1-2.486-.85c-.2-.201-.412-.479-.492-.646-.078-.161-.668-1.781-1.311-3.6l-1.169-3.306.275-.128c.151-.07.394-.139.541-.152l.266-.024 1.6 1.286c1.536 1.235 1.77 1.39 2.091 1.391.064 0 2.981-.899 6.48-1.998 3.5-1.1 6.551-2.038 6.78-2.085.343-.071.794-.126 1.423-.175.044-.003.356.016.693.042m-4.409 2.344c-.664.17-1.144.849-1.066 1.509a1.44 1.44 0 0 0 1.251 1.252c.819.097 1.557-.578 1.557-1.423 0-.315-.261-.857-.498-1.034-.383-.286-.858-.402-1.244-.304m-4.604 1.503c-.491.221-.854.76-.854 1.268 0 .534.463 1.189.94 1.329.525.156 1.026.051 1.409-.294.762-.684.567-1.877-.375-2.303a1.5 1.5 0 0 0-1.12 0m-4.286 1.36c-.579.184-.996.854-.923 1.477.089.751.813 1.333 1.548 1.246.741-.087 1.328-.813 1.243-1.537a1.43 1.43 0 0 0-1.868-1.186"/></svg>

<svg width="32" height="32" viewBox="0 0 32 32" fill="none" xmlns="http://www.w3.org/2000/svg"><path d="M10.747 4.349 C 10.483 4.422,10.135 4.547,9.974 4.625 C 9.178 5.012,8.683 5.980,8.843 6.840 C 8.922 7.264,10.131 9.801,10.393 10.094 C 10.629 10.357,11.038 10.487,11.358 10.401 C 11.621 10.330,11.937 10.063,12.035 9.829 C 12.195 9.446,12.148 9.283,11.467 7.876 C 11.115 7.148,10.827 6.520,10.827 6.480 C 10.827 6.404,11.307 6.240,11.529 6.240 C 11.622 6.240,12.025 6.611,13.094 7.680 C 14.565 9.152,14.673 9.237,15.067 9.237 C 15.467 9.237,15.864 8.975,15.997 8.623 C 16.084 8.391,16.064 8.016,15.951 7.798 C 15.895 7.689,15.167 6.923,14.334 6.095 C 12.970 4.740,12.782 4.572,12.452 4.418 C 11.945 4.181,11.424 4.160,10.747 4.349 M22.524 8.698 C 21.664 8.799,20.838 9.037,15.051 10.854 C 11.728 11.897,8.980 12.733,8.945 12.711 C 8.909 12.689,8.292 12.202,7.573 11.628 C 6.159 10.499,5.864 10.324,5.218 10.228 C 4.711 10.153,4.286 10.230,3.501 10.538 C 2.953 10.754,2.829 10.826,2.563 11.087 C 2.080 11.560,1.878 12.243,2.040 12.853 C 2.228 13.563,4.505 19.898,4.710 20.285 C 5.196 21.199,6.011 22.003,6.896 22.442 C 7.574 22.778,8.020 22.886,8.853 22.918 C 9.766 22.953,9.984 22.910,11.920 22.301 L 13.413 21.831 13.441 23.995 C 13.466 25.916,13.480 26.190,13.567 26.423 C 13.778 26.993,14.189 27.428,14.712 27.636 C 14.954 27.733,15.118 27.756,15.547 27.756 C 16.007 27.756,16.152 27.732,16.602 27.581 C 17.060 27.428,17.162 27.370,17.442 27.104 C 17.740 26.819,17.892 26.557,19.834 22.987 C 21.775 19.420,21.921 19.169,22.088 19.109 C 22.186 19.073,23.383 18.695,24.747 18.268 C 26.236 17.801,27.397 17.408,27.653 17.282 C 29.410 16.418,30.366 14.375,29.888 12.509 C 29.773 12.059,29.396 11.288,29.102 10.900 C 28.218 9.733,26.783 8.969,25.014 8.722 C 24.386 8.635,23.171 8.623,22.524 8.698 M24.160 10.664 C 24.497 10.691,24.965 10.752,25.200 10.801 C 25.641 10.892,26.454 11.180,26.452 11.244 C 26.451 11.264,26.073 11.400,25.612 11.547 C 24.518 11.894,24.300 12.004,24.133 12.290 C 23.791 12.872,24.094 13.590,24.756 13.767 C 25.015 13.836,25.173 13.796,27.067 13.178 C 27.507 13.035,27.885 12.928,27.907 12.942 C 27.929 12.955,27.947 13.167,27.947 13.412 C 27.947 14.365,27.511 15.125,26.747 15.507 C 26.629 15.566,26.053 15.763,25.467 15.946 C 22.693 16.809,20.908 17.383,20.767 17.456 C 20.683 17.500,20.561 17.593,20.497 17.662 C 20.433 17.730,19.418 19.555,18.240 21.717 L 16.099 25.648 15.815 25.731 C 15.658 25.776,15.516 25.813,15.498 25.813 C 15.481 25.813,15.466 24.571,15.464 23.053 C 15.462 20.150,15.454 20.040,15.218 19.776 C 15.077 19.617,14.727 19.469,14.488 19.468 C 14.371 19.467,13.327 19.765,12.061 20.161 C 10.840 20.544,9.673 20.880,9.469 20.909 C 8.571 21.038,7.641 20.721,6.983 20.059 C 6.783 19.858,6.571 19.580,6.491 19.413 C 6.413 19.252,5.823 17.632,5.180 15.813 L 4.011 12.507 4.286 12.379 C 4.437 12.309,4.680 12.240,4.827 12.227 L 5.093 12.203 6.693 13.489 C 8.229 14.724,8.463 14.879,8.784 14.880 C 8.848 14.880,11.765 13.981,15.264 12.882 C 18.764 11.782,21.815 10.844,22.044 10.797 C 22.387 10.726,22.838 10.671,23.467 10.622 C 23.511 10.619,23.823 10.638,24.160 10.664 M19.751 13.008 C 19.087 13.178,18.607 13.857,18.685 14.517 C 18.761 15.165,19.287 15.692,19.936 15.769 C 20.755 15.866,21.493 15.191,21.493 14.346 C 21.493 14.031,21.232 13.489,20.995 13.312 C 20.612 13.026,20.137 12.910,19.751 13.008 M15.147 14.511 C 14.656 14.732,14.293 15.271,14.293 15.779 C 14.293 16.313,14.756 16.968,15.233 17.108 C 15.758 17.264,16.259 17.159,16.642 16.814 C 17.404 16.130,17.209 14.937,16.267 14.511 C 15.946 14.366,15.467 14.366,15.147 14.511 M10.861 15.871 C 10.282 16.055,9.865 16.725,9.938 17.348 C 10.027 18.099,10.751 18.681,11.486 18.594 C 12.227 18.507,12.814 17.781,12.729 17.057 C 12.623 16.164,11.727 15.594,10.861 15.871 " fill="#1A1C1F" stroke="none" fill-rule="evenodd"></path></svg>
